paymentMethods/jcb.svg

<svg width="128" height="64" viewBox="0 0 128 64" fill="none" xmlns="http://www.w3.org/2000/svg">
<rect width="128" height="64" rx="6" fill="white"/>
<path d="M84.2473 38.4285H90.0165C90.1813 38.4285 90.5659 38.3736 90.7308 38.3736C91.8297 38.1538 92.7637 37.1648 92.7637 35.7912C92.7637 34.4725 91.8297 33.4835 90.7308 33.2088C90.5659 33.1538 90.2363 33.1538 90.0165 33.1538H84.2473V38.4285Z" fill="url(#paint0_linear_5_11585)"/>
<path d="M89.3571 2C83.8626 2 79.3571 6.45055 79.3571 12V22.3846H93.478C93.8077 22.3846 94.1923 22.3846 94.467 22.4396C97.6538 22.6044 100.016 24.2527 100.016 27.1099C100.016 29.3626 98.4231 31.2857 95.456 31.6703V31.7802C98.6978 32 101.17 33.8132 101.17 36.6154C101.17 39.6374 98.4231 41.6154 94.7967 41.6154H79.3022V61.9451H93.9725C99.467 61.9451 103.973 57.4945 103.973 51.9451V2H89.3571Z" fill="url(#paint1_linear_5_11585)"/>
<path d="M92.0494 27.7692C92.0494 26.4505 91.1154 25.5714 90.0165 25.4066C89.9066 25.4066 89.6319 25.3516 89.467 25.3516H84.2473V30.1868H89.467C89.6319 30.1868 89.9615 30.1868 90.0165 30.1318C91.1154 29.967 92.0494 29.0879 92.0494 27.7692Z" fill="url(#paint2_linear_5_11585)"/>
<path d="M34.0824 2C28.5879 2 24.0824 6.45055 24.0824 12V36.6703C26.8846 38.044 29.7967 38.9231 32.7088 38.9231C36.1703 38.9231 38.0385 36.8352 38.0385 33.978V22.3297H46.6099V33.9231C46.6099 38.4286 43.8077 42.1099 34.3022 42.1099C28.533 42.1099 24.0275 40.8462 24.0275 40.8462V61.8901H38.6978C44.1923 61.8901 48.6978 57.4396 48.6978 51.8901V2H34.0824Z" fill="url(#paint3_linear_5_11585)"/>
<path d="M61.7198 2C56.2253 2 51.7198 6.45055 51.7198 12V25.0769C54.2472 22.9341 58.6428 21.5604 65.7308 21.8901C69.522 22.0549 73.5879 23.0989 73.5879 23.0989V27.3297C71.5549 26.2857 69.1374 25.3516 66.0055 25.1319C60.6209 24.7473 57.3791 27.3846 57.3791 32C57.3791 36.6703 60.6209 39.3077 66.0055 38.8681C69.1374 38.6484 71.5549 37.6593 73.5879 36.6703V40.9011C73.5879 40.9011 69.5769 41.9451 65.7308 42.1099C58.6428 42.4396 54.2472 41.0659 51.7198 38.9231V62H66.3901C71.8846 62 76.3901 57.5495 76.3901 52V2H61.7198Z" fill="url(#paint4_linear_5_11585)"/>
<defs>
<linearGradient id="paint0_linear_5_11585" x1="79.3464" y1="35.7967" x2="104.04" y2="35.7967" gradientUnits="userSpaceOnUse">
<stop stop-color="#007940"/>
<stop offset="0.2285" stop-color="#00873F"/>
<stop offset="0.7433" stop-color="#40A737"/>
<stop offset="1" stop-color="#5CB531"/>
</linearGradient>
<linearGradient id="paint1_linear_5_11585" x1="79.3472" y1="31.9476" x2="104.04" y2="31.9476" gradientUnits="userSpaceOnUse">
<stop stop-color="#007940"/>
<stop offset="0.2285" stop-color="#00873F"/>
<stop offset="0.7433" stop-color="#40A737"/>
<stop offset="1" stop-color="#5CB531"/>
</linearGradient>
<linearGradient id="paint2_linear_5_11585" x1="79.3463" y1="27.7609" x2="104.038" y2="27.7609" gradientUnits="userSpaceOnUse">
<stop stop-color="#007940"/>
<stop offset="0.2285" stop-color="#00873F"/>
<stop offset="0.7433" stop-color="#40A737"/>
<stop offset="1" stop-color="#5CB531"/>
</linearGradient>
<linearGradient id="paint3_linear_5_11585" x1="24.0699" y1="31.9476" x2="49.1436" y2="31.9476" gradientUnits="userSpaceOnUse">
<stop stop-color="#1F286F"/>
<stop offset="0.4751" stop-color="#004E94"/>
<stop offset="0.8261" stop-color="#0066B1"/>
<stop offset="1" stop-color="#006FBC"/>
</linearGradient>
<linearGradient id="paint4_linear_5_11585" x1="51.577" y1="31.9476" x2="75.9285" y2="31.9476" gradientUnits="userSpaceOnUse">
<stop stop-color="#6C2C2F"/>
<stop offset="0.1735" stop-color="#882730"/>
<stop offset="0.5731" stop-color="#BE1833"/>
<stop offset="0.8585" stop-color="#DC0436"/>
<stop offset="1" stop-color="#E60039"/>
</linearGradient>
</defs>
</svg>

<svg xmlns="http://www.w3.org/2000/svg" width="128" height="64" fill="none"><rect width="128" height="64" fill="#fff" rx="6"/><path fill="url(#a)" d="M84.247 38.428h5.77c.164 0 .549-.054.714-.054 1.099-.22 2.033-1.21 2.033-2.583 0-1.319-.934-2.307-2.033-2.582-.165-.055-.495-.055-.715-.055h-5.769v5.274Z"/><path fill="url(#b)" d="M89.357 2c-5.494 0-10 4.45-10 10v10.385h14.121c.33 0 .714 0 .989.055 3.187.164 5.549 1.813 5.549 4.67 0 2.253-1.593 4.176-4.56 4.56v.11c3.242.22 5.714 2.033 5.714 4.835 0 3.022-2.747 5-6.373 5H79.302v20.33h14.67c5.495 0 10.001-4.45 10.001-10V2H89.357Z"/><path fill="url(#c)" d="M92.05 27.77c0-1.32-.935-2.199-2.034-2.363-.11 0-.384-.055-.549-.055h-5.22v4.835h5.22c.165 0 .495 0 .55-.055 1.098-.165 2.032-1.044 2.032-2.363Z"/><path fill="url(#d)" d="M34.082 2c-5.494 0-10 4.45-10 10v24.67c2.803 1.374 5.715 2.253 8.627 2.253 3.461 0 5.33-2.088 5.33-4.945V22.33h8.57v11.593c0 4.506-2.801 8.187-12.307 8.187-5.769 0-10.274-1.264-10.274-1.264V61.89h14.67c5.494 0 10-4.45 10-10V2H34.082Z"/><path fill="url(#e)" d="M61.72 2c-5.495 0-10 4.45-10 10v13.077c2.527-2.143 6.923-3.517 14.01-3.187 3.792.165 7.858 1.209 7.858 1.209v4.23c-2.033-1.043-4.45-1.977-7.582-2.197-5.385-.385-8.627 2.253-8.627 6.868 0 4.67 3.242 7.308 8.627 6.868 3.131-.22 5.549-1.209 7.582-2.198v4.231s-4.011 1.044-7.857 1.209c-7.088.33-11.484-1.044-14.011-3.187V62h14.67c5.495 0 10-4.45 10-10V2H61.72Z"/><defs><linearGradient id="a" x1="79.346" x2="104.04" y1="35.797" y2="35.797" gradientUnits="userSpaceOnUse"><stop stop-color="#007940"/><stop offset=".229" stop-color="#00873F"/><stop offset=".743" stop-color="#40A737"/><stop offset="1" stop-color="#5CB531"/></linearGradient><linearGradient id="b" x1="79.347" x2="104.04" y1="31.948" y2="31.948" gradientUnits="userSpaceOnUse"><stop stop-color="#007940"/><stop offset=".229" stop-color="#00873F"/><stop offset=".743" stop-color="#40A737"/><stop offset="1" stop-color="#5CB531"/></linearGradient><linearGradient id="c" x1="79.346" x2="104.038" y1="27.761" y2="27.761" gradientUnits="userSpaceOnUse"><stop stop-color="#007940"/><stop offset=".229" stop-color="#00873F"/><stop offset=".743" stop-color="#40A737"/><stop offset="1" stop-color="#5CB531"/></linearGradient><linearGradient id="d" x1="24.07" x2="49.144" y1="31.948" y2="31.948" gradientUnits="userSpaceOnUse"><stop stop-color="#1F286F"/><stop offset=".475" stop-color="#004E94"/><stop offset=".826" stop-color="#0066B1"/><stop offset="1" stop-color="#006FBC"/></linearGradient><linearGradient id="e" x1="51.577" x2="75.928" y1="31.948" y2="31.948" gradientUnits="userSpaceOnUse"><stop stop-color="#6C2C2F"/><stop offset=".173" stop-color="#882730"/><stop offset=".573" stop-color="#BE1833"/><stop offset=".859" stop-color="#DC0436"/><stop offset="1" stop-color="#E60039"/></linearGradient></defs></svg>
